X: 3
T: Greasy Coat
M: C|
L: 1/8
R: reel
K:Ador
%%vocalfont Times-Roman 12
AB |:"Am"c2 AA "G"GG AA|"Am"cAG2 A2 AB|c2 A2 "G"GG AG|"G/E-G"EDEG "Am"A2 AB|
w: 1.*I don't_ drink_ and_| I_ don't smoke and_| I don't wear_ no_| grea_sy_ coat.|
w:    **I don't_ smoke_ and_ I_ don't chew and_ I don't go_ with_ girls_ that_ do.|
w: 2.*I don't_ kiss_ and_ I_ don't tell and_ those that do_ are_ going_ to_ hell.|
w:**I don't_ cuss_ and_ I_ don't lie and_ I'll go~to heav_en_ when_ I_ die.|
cAGA cAdA|"Am(C)"e4-e2 d2|"Am"c2 A2 "G"GG AG|[1"G/E-G"EDEG"Am" A2 AB :|[2 "G/E-G"EDEG"Am" A3 G ||
"Am"ABcd eefe| "G"f g2 g- gAcB| "Am"ABcd efge|"D"g a2 a- a2 cB|
"Am"ABcd e2fe|"G" g2 ag eAdA|"Am"c2 AD "G"G2 AG|"Am"E A3 A4:|
%%sep .1cm .1cm 15cm

